X:268
T:Polska efter Magnus Olsson
S:efter Magnus Olsson
O:Lycke, Arvika sn, Värmland
B:EÖ nr 268
R:Polska
Z:Nils L
M:3/4
L:1/8 
%%tuplets 0 0 1
K:D
a2 (fa) (fa) | .a.g (eg) (eg) | a>f d2 e>c | de (fa) (3P^gfg |
a2 (fa) (fa) | a>g eg eg | a>f d>f e>d | (3cBc d3z ::
A2 d>f e>c | d>e f>a P^gf/g/ | !>!a2 f>d e2 | c>d e>f (3dec |
A2 d>f e>c | d>e f>a (3^gfg | a2 f>d e>d | (3cBc d2 z2 :|

